icons/svg/help-circle_14.svg

<?xml version="1.0" encoding="UTF-8"?>
<svg width="14px" height="14px" viewBox="0 0 14 14" version="1.1" xmlns="http://www.w3.org/2000/svg" xmlns:xlink="http://www.w3.org/1999/xlink">
    <!-- Generator: Sketch 58 (84663) - https://sketch.com -->
    <title>help-circle_14</title>
    <desc>Created with Sketch.</desc>
    <g id="New-Icon" stroke="none" stroke-width="1" fill="none" fill-rule="evenodd">
        <g id="help-circle_14" fill="#171B1F">
            <path d="M6.9971,-0.0005 C10.8551,-0.0005 13.9941,3.1395 13.9941,6.9975 C13.9941,10.8555 10.8551,13.9945 6.9971,13.9945 C3.1391,13.9945 0.0001,10.8555 0.0001,6.9975 C0.0001,3.1395 3.1391,-0.0005 6.9971,-0.0005 Z M6.9971,0.9995 C3.6901,0.9995 0.9991,3.6895 0.9991,6.9975 C0.9991,10.3045 3.6901,12.9955 6.9971,12.9955 C10.3041,12.9955 12.9951,10.3045 12.9951,6.9975 C12.9951,3.6895 10.3041,0.9995 6.9971,0.9995 Z M7.1112,10.0341 C7.3792,10.1011 7.5432,10.3721 7.4752,10.6401 C7.4192,10.8671 7.2162,11.0181 6.9922,11.0181 C6.9522,11.0181 6.9112,11.0131 6.8712,11.0031 L6.8692,11.0021 C6.6012,10.9351 6.4382,10.6641 6.5062,10.3971 C6.5722,10.1291 6.8442,9.9651 7.1112,10.0341 Z M6.9793,3.0252 C7.6503,3.0252 8.2823,3.2902 8.7623,3.7722 C9.2343,4.2462 9.4923,4.8642 9.48932587,5.5112 C9.4833,6.6142 8.9013,7.1152 8.3883,7.5562 C8.1313,7.7782 7.8653,8.0072 7.6453,8.3242 C7.4913,8.5452 7.4873,8.8332 7.4873,8.8362 C7.4913,9.1122 7.2723,9.3402 6.9963,9.3452 L6.9873,9.3452 C6.7153,9.3452 6.4923,9.1272 6.4873,8.8542 C6.4873,8.7932 6.4873,8.2402 6.8243,7.7542 C7.1173,7.3322 7.4453,7.0492 7.7363,6.7992 C8.2033,6.3972 8.4863,6.1532 8.4893,5.5062 C8.4913,5.1272 8.3373,4.7612 8.0543,4.4772 C7.7633,4.1852 7.3823,4.0242 6.9793,4.0242 C6.1693,4.0242 5.4843,4.7182 5.4833,5.5392 C5.4833,5.8152 5.2593,6.0382 4.9843,6.0382 L4.9833,6.0382 C4.7073,6.0382 4.4843,5.8152 4.4843,5.5382 C4.4863,4.1762 5.6283,3.0252 6.9793,3.0252 Z" id="fill"></path>
        </g>
    </g>
</svg>

<svg width="14" height="14" xmlns="http://www.w3.org/2000/svg"><path d="M6.997 0c3.858 0 6.997 3.14 6.997 6.997a7.005 7.005 0 01-6.997 6.998A7.005 7.005 0 010 6.998C0 3.138 3.14 0 6.997 0zm0 1A6.005 6.005 0 001 6.997a6.005 6.005 0 005.998 5.998 6.005 6.005 0 005.998-5.997A6.005 6.005 0 006.997 1zm.114 9.034a.499.499 0 11-.24.97l-.002-.002a.498.498 0 01-.363-.605.496.496 0 01.605-.363zM6.98 3.025a2.5 2.5 0 011.783.747 2.44 2.44 0 01.727 1.74c-.006 1.102-.588 1.603-1.1 2.044-.258.222-.524.451-.744.768a1.03 1.03 0 00-.158.512.5.5 0 01-.49.51h-.01a.5.5 0 01-.5-.492c0-.06 0-.614.337-1.1.293-.422.621-.705.912-.955.467-.402.75-.646.753-1.293a1.445 1.445 0 00-.435-1.029 1.51 1.51 0 00-1.075-.453c-.81 0-1.495.694-1.496 1.515a.499.499 0 11-.999-.001c.002-1.362 1.144-2.513 2.495-2.513z" fill="#171B1F" fill-rule="evenodd"/></svg>
